public/images/sprite.svg

<svg width="0" height="0" class="hidden">
  <symbol fill="none" xmlns="http://www.w3.org/2000/svg" viewBox="0 0 128 43" id="logo">
    <path d="M9.894 3c-1.224-.49-3.345-.902-5.83 3-3.186 5-.501 6.5-.501 6.5s1.718 2.72 6.33-1.893c-2.446 2.027-7.59 7.276-8.596 12.056-1.258 5.976 1.782 4.823 3.46 3.984 1.677-.839 11.411-10.209 17.806-19.539 2.201-3.39 1.5-6.507-1.517-4.88-3.483 1.88-3.185 5.612-4.863 12.992-1.747 5.696-4.046 15.956.734 11.427 5.976-5.661 13.073-15.813 14.646-18.539 1.572-2.726 4.16-8.71-.243-6.823-4.403 1.887-6.016 23.58-5.911 24.523.105.944-.524 3.355 4.822-.838 5.832-4.574 11.373-17.862 12.516-20.362.559-1.223.329-3.218-1.684-2.38-1.817 1.818-2.026 6.492-3.703 16.137-.384 2.237-.713 6.689 1.048 6.605 2.202-.105 7.653-2.516 9.33-10.589l-1.991 9.645c1.264-1.939 3.295-4.857 5.36-7.443m5.857-5.556c-1.389.39-3.643 2.782-5.857 5.556m0 0c-1.403 2.865-3.2 8.282.825 7.024 5.032-1.573 8.806-8.911 10.274-11.427-1.852 2.76-5.536 10.986-1.678 9.645 3.858-1.342 7.968-9.016 9.54-12.685-2.97 8.806-9.12 26.753-9.96 28.095-1.047 1.678-3.249 6.29-4.612 4.613-1.363-1.678-.629-3.984 9.12-14.258 9.75-10.273 10.42-7.684 16.08-15.337C86.359 4.6 86.862.302 82.564 4.285c-4.298 3.984-5.536 30.402-11.092 32.08-5.556 1.677 5.091-8.825 7.863-11.218 2.306-1.992 10.623-6.392 14.257-11.354-2.027 1.258-5.074 3.795-1.048 3.879 4.025.084 14.677-9.05 19.499-13.628-1.223 1.013-3.082 3.166-.734 3.669 2.348.503 11.252-4.194 15.411-6.605" stroke="#EE322C" stroke-linecap="round" stroke-linejoin="round"/>
  </symbol>
  <symbol fill="#0B0B0B" xmlns="http://www.w3.org/2000/svg" viewBox="0 0 16 17" id="arrow-right">
    <path d="M0 7.5h12.17L6.58 1.91 8 .5l8 8-8 8-1.41-1.41 5.58-5.59H0v-2z" />
  </symbol>
  <symbol xmlns="http://www.w3.org/2000/svg" viewBox="0 0 8 11" id="faq">
    <path d="M3.836.822c1.017 0 1.806.261 2.366.784.57.513.854 1.19.854 2.03 0 .448-.089.845-.266 1.19-.168.345-.35.607-.546.784-.187.177-.485.42-.896.728-.355.261-.593.48-.714.658-.121.177-.182.443-.182.798v.378h-1.61v-.378c0-.55.103-.985.308-1.302.205-.317.593-.7 1.162-1.148.392-.28.677-.537.854-.77.177-.243.266-.555.266-.938 0-.392-.14-.723-.42-.994-.28-.28-.663-.42-1.148-.42-1.083 0-1.643.55-1.68 1.652H.574c.019-.915.313-1.652.882-2.212.579-.56 1.372-.84 2.38-.84zM4.536 11H2.73V9.124h1.806V11z"/>
  </symbol>
  <symbol fill="none" xmlns="http://www.w3.org/2000/svg" viewBox="0 0 24 24" id="home">
    <path d="m12 5.69 5 4.5V18h-2v-6H9v6H7v-7.81l5-4.5zM12 3 2 12h3v8h6v-6h2v6h6v-8h3L12 3z" fill="#0B0B0B"/>
  </symbol>
  <symbol xmlns="http://www.w3.org/2000/svg" fill="none"  viewBox="0 0 48 48" id="link">
    <path stroke="#0b0b0b" d="M.5.5h47v47H.5z"/>
    <path d="M30.666 17.332h-4a1.34 1.34 0 0 0-1.333 1.333 1.34 1.34 0 0 0 1.333 1.333h4c2.2 0 4 1.8 4 4s-1.8 4-4 4h-4a1.34 1.34 0 0 0-1.333 1.333 1.34 1.34 0 0 0 1.333 1.333h4a6.67 6.67 0 0 0 6.667-6.667 6.67 6.67 0 0 0-6.667-6.667zm-12 6.667a1.34 1.34 0 0 0 1.333 1.333h8a1.34 1.34 0 0 0 1.333-1.333 1.34 1.34 0 0 0-1.333-1.333h-8a1.34 1.34 0 0 0-1.333 1.333zm2.667 4h-4c-2.2 0-4-1.8-4-4s1.8-4 4-4h4a1.34 1.34 0 0 0 1.333-1.333 1.34 1.34 0 0 0-1.333-1.333h-4a6.67 6.67 0 0 0-6.667 6.667 6.67 6.67 0 0 0 6.667 6.667h4a1.34 1.34 0 0 0 1.333-1.333 1.34 1.34 0 0 0-1.333-1.333z" fill="#323232"/>
  </symbol>
  <symbol fill="none" xmlns="http://www.w3.org/2000/svg" viewBox="0 0 32 32" id="launch">
    <g clip-path="url(#a)">
      <path d="M25.333 25.333H6.667V6.667H16V4H6.667C5.187 4 4 5.2 4 6.667v18.666A2.666 2.666 0 0 0 6.667 28h18.666C26.8 28 28 26.8 28 25.333V16h-2.667v9.333zM18.667 4v2.667h4.786L10.347 19.773l1.88 1.88L25.333 8.547v4.786H28V4h-9.333z" fill="#007BC2"/>
    </g>
    <defs>
      <clipPath id="a">
        <path fill="#fff" d="M0 0h32v32H0z"/>
      </clipPath>
    </defs>
  </symbol>
  <symbol fill="none" xmlns="http://www.w3.org/2000/svg" viewBox="0 0 48 48" id="figma">
    <g clip-path="url(#a)">
      <path d="M24 24a4.833 4.833 0 1 1 9.666 0A4.833 4.833 0 0 1 24 24z" fill="#1ABCFE"/>
      <path d="M14.336 33.667a4.834 4.834 0 0 1 4.833-4.833h4.834v4.833a4.833 4.833 0 1 1-9.667 0z" fill="#0ACF83"/>
      <path d="M24 9.5v9.667h4.833a4.833 4.833 0 0 0 0-9.667H24z" fill="#FF7262"/>
      <path d="M14.336 14.333a4.833 4.833 0 0 0 4.833 4.834h4.834V9.5h-4.834a4.833 4.833 0 0 0-4.833 4.833z" fill="#F24E1E"/>
      <path d="M14.336 24a4.833 4.833 0 0 0 4.833 4.833h4.834v-9.667h-4.834a4.833 4.833 0 0 0-4.833 4.833z" fill="#A259FF"/>
    </g>
    <path stroke="#0B0B0B" d="M.5.5h47v47H.5z"/>
    <defs>
      <clipPath id="a">
        <path fill="#fff" transform="translate(14.336 9.5)" d="M0 0h19.333v29H0z"/>
      </clipPath>
    </defs>
  </symbol>
  <symbol fill="none" xmlns="http://www.w3.org/2000/svg" viewBox="0 0 24 25" id="cross">
    <rect width="24" height="24" transform="translate(0 0.642578)" fill="white"/>
    <path d="M4.2097 5.02968L4.29289 4.93547C4.65338 4.57499 5.22061 4.54726 5.6129 4.85228L5.70711 4.93547L12 11.2276L18.2929 4.93547C18.6834 4.54495 19.3166 4.54495 19.7071 4.93547C20.0976 5.326 20.0976 5.95916 19.7071 6.34968L13.415 12.6426L19.7071 18.9355C20.0676 19.296 20.0953 19.8632 19.7903 20.2555L19.7071 20.3497C19.3466 20.7102 18.7794 20.7379 18.3871 20.4329L18.2929 20.3497L12 14.0576L5.70711 20.3497C5.31658 20.7402 4.68342 20.7402 4.29289 20.3497C3.90237 19.9592 3.90237 19.326 4.29289 18.9355L10.585 12.6426L4.29289 6.34968C3.93241 5.9892 3.90468 5.42197 4.2097 5.02968L4.29289 4.93547L4.2097 5.02968Z" fill="#212121" />
  </symbol>
  <symbol fill="none" xmlns="http://www.w3.org/2000/svg" viewBox="0 0 24 25" id="burger">
    <rect width="24" height="24" transform="translate(0 0.642578)" fill="white"/>
    <path d="M3 17.6426H21C21.5523 17.6426 22 18.0903 22 18.6426C22 19.1554 21.614 19.5781 21.1166 19.6359L21 19.6426H3C2.44772 19.6426 2 19.1949 2 18.6426C2 18.1297 2.38604 17.7071 2.88338 17.6493L3 17.6426H21H3ZM2.99988 11.6426L20.9999 11.6404C21.5522 11.6403 22 12.088 22 12.6403C22 13.1531 21.6141 13.5758 21.1167 13.6337L21.0001 13.6404L3.00012 13.6426C2.44784 13.6426 2 13.195 2 12.6427C2 12.1299 2.38594 11.7071 2.88326 11.6493L2.99988 11.6426L20.9999 11.6404L2.99988 11.6426ZM3 5.64258H21C21.5523 5.64258 22 6.09029 22 6.64258C22 7.15541 21.614 7.57809 21.1166 7.63585L21 7.64258H3C2.44772 7.64258 2 7.19486 2 6.64258C2 6.12974 2.38604 5.70707 2.88338 5.64931L3 5.64258H21H3Z" fill="#212121" />
  </symbol>
</svg>

<svg width="0" height="0" class="hidden">
  <symbol fill="none" xmlns="http://www.w3.org/2000/svg" viewBox="0 0 128 43" id="logo">
    <path d="M9.894 3c-1.224-.49-3.345-.902-5.83 3-3.186 5-.501 6.5-.501 6.5s1.718 2.72 6.33-1.893c-2.446 2.027-7.59 7.276-8.596 12.056-1.258 5.976 1.782 4.823 3.46 3.984 1.677-.839 11.411-10.209 17.806-19.539 2.201-3.39 1.5-6.507-1.517-4.88-3.483 1.88-3.185 5.612-4.863 12.992-1.747 5.696-4.046 15.956.734 11.427 5.976-5.661 13.073-15.813 14.646-18.539 1.572-2.726 4.16-8.71-.243-6.823-4.403 1.887-6.016 23.58-5.911 24.523.105.944-.524 3.355 4.822-.838 5.832-4.574 11.373-17.862 12.516-20.362.559-1.223.329-3.218-1.684-2.38-1.817 1.818-2.026 6.492-3.703 16.137-.384 2.237-.713 6.689 1.048 6.605 2.202-.105 7.653-2.516 9.33-10.589l-1.991 9.645c1.264-1.939 3.295-4.857 5.36-7.443m5.857-5.556c-1.389.39-3.643 2.782-5.857 5.556m0 0c-1.403 2.865-3.2 8.282.825 7.024 5.032-1.573 8.806-8.911 10.274-11.427-1.852 2.76-5.536 10.986-1.678 9.645 3.858-1.342 7.968-9.016 9.54-12.685-2.97 8.806-9.12 26.753-9.96 28.095-1.047 1.678-3.249 6.29-4.612 4.613-1.363-1.678-.629-3.984 9.12-14.258 9.75-10.273 10.42-7.684 16.08-15.337C86.359 4.6 86.862.302 82.564 4.285c-4.298 3.984-5.536 30.402-11.092 32.08-5.556 1.677 5.091-8.825 7.863-11.218 2.306-1.992 10.623-6.392 14.257-11.354-2.027 1.258-5.074 3.795-1.048 3.879 4.025.084 14.677-9.05 19.499-13.628-1.223 1.013-3.082 3.166-.734 3.669 2.348.503 11.252-4.194 15.411-6.605" stroke="#EE322C" stroke-linecap="round" stroke-linejoin="round"/>
  </symbol>
  <symbol fill="#0B0B0B" xmlns="http://www.w3.org/2000/svg" viewBox="0 0 16 17" id="arrow-right">
    <path d="M0 7.5h12.17L6.58 1.91 8 .5l8 8-8 8-1.41-1.41 5.58-5.59H0v-2z" />
  </symbol>
  <symbol xmlns="http://www.w3.org/2000/svg" viewBox="0 0 8 11" id="faq">
    <path d="M3.836.822c1.017 0 1.806.261 2.366.784.57.513.854 1.19.854 2.03 0 .448-.089.845-.266 1.19-.168.345-.35.607-.546.784-.187.177-.485.42-.896.728-.355.261-.593.48-.714.658-.121.177-.182.443-.182.798v.378h-1.61v-.378c0-.55.103-.985.308-1.302.205-.317.593-.7 1.162-1.148.392-.28.677-.537.854-.77.177-.243.266-.555.266-.938 0-.392-.14-.723-.42-.994-.28-.28-.663-.42-1.148-.42-1.083 0-1.643.55-1.68 1.652H.574c.019-.915.313-1.652.882-2.212.579-.56 1.372-.84 2.38-.84zM4.536 11H2.73V9.124h1.806V11z"/>
  </symbol>
  <symbol fill="none" xmlns="http://www.w3.org/2000/svg" viewBox="0 0 24 24" id="home">
    <path d="m12 5.69 5 4.5V18h-2v-6H9v6H7v-7.81l5-4.5zM12 3 2 12h3v8h6v-6h2v6h6v-8h3L12 3z" fill="#0B0B0B"/>
  </symbol>
  <symbol xmlns="http://www.w3.org/2000/svg" fill="none"  viewBox="0 0 48 48" id="link">
    <path stroke="#0b0b0b" d="M.5.5h47v47H.5z"/>
    <path d="M30.666 17.332h-4a1.34 1.34 0 0 0-1.333 1.333 1.34 1.34 0 0 0 1.333 1.333h4c2.2 0 4 1.8 4 4s-1.8 4-4 4h-4a1.34 1.34 0 0 0-1.333 1.333 1.34 1.34 0 0 0 1.333 1.333h4a6.67 6.67 0 0 0 6.667-6.667 6.67 6.67 0 0 0-6.667-6.667zm-12 6.667a1.34 1.34 0 0 0 1.333 1.333h8a1.34 1.34 0 0 0 1.333-1.333 1.34 1.34 0 0 0-1.333-1.333h-8a1.34 1.34 0 0 0-1.333 1.333zm2.667 4h-4c-2.2 0-4-1.8-4-4s1.8-4 4-4h4a1.34 1.34 0 0 0 1.333-1.333 1.34 1.34 0 0 0-1.333-1.333h-4a6.67 6.67 0 0 0-6.667 6.667 6.67 6.67 0 0 0 6.667 6.667h4a1.34 1.34 0 0 0 1.333-1.333 1.34 1.34 0 0 0-1.333-1.333z" fill="#323232"/>
  </symbol>
  <symbol fill="none" xmlns="http://www.w3.org/2000/svg" viewBox="0 0 32 32" id="launch">
    <g clip-path="url(#a)">
      <path d="M25.333 25.333H6.667V6.667H16V4H6.667C5.187 4 4 5.2 4 6.667v18.666A2.666 2.666 0 0 0 6.667 28h18.666C26.8 28 28 26.8 28 25.333V16h-2.667v9.333zM18.667 4v2.667h4.786L10.347 19.773l1.88 1.88L25.333 8.547v4.786H28V4h-9.333z" fill="#007BC2"/>
    </g>
    <defs>
      <clipPath id="a">
        <path fill="#fff" d="M0 0h32v32H0z"/>
      </clipPath>
    </defs>
  </symbol>
  <symbol fill="none" xmlns="http://www.w3.org/2000/svg" viewBox="0 0 48 48" id="figma">
    <g clip-path="url(#a)">
      <path d="M24 24a4.833 4.833 0 1 1 9.666 0A4.833 4.833 0 0 1 24 24z" fill="#1ABCFE"/>
      <path d="M14.336 33.667a4.834 4.834 0 0 1 4.833-4.833h4.834v4.833a4.833 4.833 0 1 1-9.667 0z" fill="#0ACF83"/>
      <path d="M24 9.5v9.667h4.833a4.833 4.833 0 0 0 0-9.667H24z" fill="#FF7262"/>
      <path d="M14.336 14.333a4.833 4.833 0 0 0 4.833 4.834h4.834V9.5h-4.834a4.833 4.833 0 0 0-4.833 4.833z" fill="#F24E1E"/>
      <path d="M14.336 24a4.833 4.833 0 0 0 4.833 4.833h4.834v-9.667h-4.834a4.833 4.833 0 0 0-4.833 4.833z" fill="#A259FF"/>
    </g>
    <path stroke="#0B0B0B" d="M.5.5h47v47H.5z"/>
    <defs>
      <clipPath id="a">
        <path fill="#fff" transform="translate(14.336 9.5)" d="M0 0h19.333v29H0z"/>
      </clipPath>
    </defs>
  </symbol>
  <symbol fill="none" xmlns="http://www.w3.org/2000/svg" viewBox="0 0 24 25" id="burger">
    <path d="M3 17.643h18a1 1 0 0 1 .117 1.993l-.117.007H3a1 1 0 0 1-.117-1.994L3 17.643h18H3zm0-6 18-.003a1 1 0 0 1 .117 1.994L21 13.64l-18 .003a1 1 0 0 1-.117-1.994L3 11.643l18-.003-18 .003zm0-6h18a1 1 0 0 1 .117 1.993L21 7.643H3a1 1 0 0 1-.117-1.994L3 5.643h18H3z" fill="#212121"/>
  </symbol>
  <symbol fill="none" xmlns="http://www.w3.org/2000/svg" viewBox="0 0 24 25" id="cross">
    <path d="m4.21 5.03.083-.095a1 1 0 0 1 1.32-.083l.094.083L12 11.228l6.293-6.293a1 1 0 1 1 1.414 1.415l-6.292 6.293 6.292 6.293a1 1 0 0 1 .083 1.32l-.083.094a1 1 0 0 1-1.32.083l-.094-.083L12 14.058 5.707 20.35a1 1 0 0 1-1.414-1.415l6.292-6.292L4.293 6.35a1 1 0 0 1-.083-1.32l.083-.095-.083.095z" fill="#212121"/>
  </symbol>
</svg>
